src/assets/svg/icons/fa/nuevos/classic/duotone/lock classic duotone.svg

<svg xmlns="http://www.w3.org/2000/svg" viewBox="0 0 448 512"><!--! Font Awesome Pro 6.4.0 by @fontawesome - https://fontawesome.com License - https://fontawesome.com/license (Commercial License) Copyright 2023 Fonticons, Inc. --><defs><style>.fa-secondary{opacity:.4}</style></defs><path class="fa-primary" d="M0 256c0-35.3 28.7-64 64-64H384c35.3 0 64 28.7 64 64V448c0 35.3-28.7 64-64 64H64c-35.3 0-64-28.7-64-64V256z"/><path class="fa-secondary" d="M224 64c-44.2 0-80 35.8-80 80v48H80V144C80 64.5 144.5 0 224 0s144 64.5 144 144v48H304V144c0-44.2-35.8-80-80-80z"/></svg>

<svg xmlns="http://www.w3.org/2000/svg" viewBox="0 0 448 512"><defs><style>.fa-secondary{opacity:.4}</style></defs><path class="fa-primary" d="M0 256C0 220.7 28.65 192 64 192H384C419.3 192 448 220.7 448 256V448C448 483.3 419.3 512 384 512H64C28.65 512 0 483.3 0 448V256z"/><path class="fa-secondary" d="M224 64C179.8 64 144 99.82 144 144V192H80V144C80 64.47 144.5 0 224 0C303.5 0 368 64.47 368 144V192H304V144C304 99.82 268.2 64 224 64z"/></svg>
